src/main/resources/icons/AllIcons/general/web.svg

<svg xmlns="http://www.w3.org/2000/svg" width="16" height="16" viewBox="0 0 16 16"><rect id="frame" width="16" height="16" fill="none"/><path fill="#6E6E6E" fill-rule="evenodd" d="M8 1C4.136 1 1 4.136 1 8s3.136 7 7 7 7-3.136 7-7-3.136-7-7-7zm-.7 12.551A5.592 5.592 0 0 1 2.4 8c0-.434.056-.847.147-1.253L5.9 10.1v.7c0 .77.63 1.4 1.4 1.4v1.351zm4.83-1.778a1.389 1.389 0 0 0-1.33-.973h-.7V8.7c0-.385-.315-.7-.7-.7H5.2V6.6h1.4c.385 0 .7-.315.7-.7V4.5h1.4c.77 0 1.4-.63 1.4-1.4v-.287A5.603 5.603 0 0 1 13.6 8a5.57 5.57 0 0 1-1.47 3.773z"/></svg>

<!-- Copyright 2000-2021 JetBrains s.r.o. Use of this source code is governed by the Apache 2.0 license that can be found in the LICENSE file. -->
<svg xmlns="http://www.w3.org/2000/svg" width="16" height="16" viewBox="0 0 16 16">
  <path fill="#6E6E6E" fill-rule="evenodd" d="M8,1 C4.136,1 1,4.136 1,8 C1,11.864 4.136,15 8,15 C11.864,15 15,11.864 15,8 C15,4.136 11.864,1 8,1 Z M7.3,13.551 C4.535,13.208 2.4,10.856 2.4,8 C2.4,7.566 2.456,7.153 2.547,6.747 L5.9,10.1 L5.9,10.8 C5.9,11.57 6.53,12.2 7.3,12.2 L7.3,13.551 Z M12.13,11.773 C11.948,11.206 11.43,10.8 10.8,10.8 L10.1,10.8 L10.1,8.7 C10.1,8.315 9.785,8 9.4,8 L5.2,8 L5.2,6.6 L6.6,6.6 C6.985,6.6 7.3,6.285 7.3,5.9 L7.3,4.5 L8.7,4.5 C9.47,4.5 10.1,3.87 10.1,3.1 L10.1,2.813 C12.151,3.646 13.6,5.655 13.6,8 C13.6,9.456 13.04,10.779 12.13,11.773 Z"/>
</svg>
